dist/images/instore.svg

<?xml version="1.0" encoding="UTF-8"?>
<svg width="14px" height="12px" viewBox="0 0 14 12" version="1.1" xmlns="http://www.w3.org/2000/svg" xmlns:xlink="http://www.w3.org/1999/xlink">
    <!-- Generator: Sketch 62 (91390) - https://sketch.com -->
    <title>instore</title>
    <desc>Created with Sketch.</desc>
    <g id="Design-V1" stroke="none" stroke-width="1" fill="none" fill-rule="evenodd">
        <g id="Shelf-Packing-List" transform="translate(-107.000000, -313.000000)" fill="#53C999" fill-rule="nonzero">
            <path d="M120.275771,316.033341 L118.881435,313.80756 C118.756825,313.607755 118.535536,313.485294 118.299208,313.485294 L109.619521,313.485294 C109.383193,313.485294 109.161904,313.607755 109.037294,313.80756 L107.642958,316.033341 C106.923232,317.182755 107.561318,318.781193 108.906239,318.96381 C109.002919,318.9767 109.101747,318.983146 109.200575,318.983146 C109.836513,318.983146 110.399404,318.703849 110.786122,318.272013 C111.172841,318.703849 111.73788,318.983146 112.371669,318.983146 C113.007607,318.983146 113.570497,318.703849 113.957216,318.272013 C114.343935,318.703849 114.908974,318.983146 115.542763,318.983146 C116.1787,318.983146 116.741591,318.703849 117.12831,318.272013 C117.517177,318.703849 118.080068,318.983146 118.713857,318.983146 C118.814833,318.983146 118.911513,318.9767 119.008193,318.96381 C120.357411,318.783341 120.997646,317.184904 120.275771,316.033341 L120.275771,316.033341 Z M118.718154,319.672794 C118.50331,319.672794 118.290614,319.640568 118.084364,319.591154 L118.084364,321.735294 L109.834364,321.735294 L109.834364,319.591154 C109.628114,319.638419 109.415419,319.672794 109.200575,319.672794 C109.071669,319.672794 108.940614,319.6642 108.813857,319.647013 C108.693544,319.629825 108.57538,319.601896 108.461513,319.569669 L108.461513,323.797794 C108.461513,324.178068 108.768739,324.485294 109.149013,324.485294 L118.774013,324.485294 C119.154286,324.485294 119.461513,324.178068 119.461513,323.797794 L119.461513,319.569669 C119.345497,319.604044 119.229482,319.631974 119.109169,319.647013 C118.978114,319.6642 118.849208,319.672794 118.718154,319.672794 Z" id="instore"></path>
        </g>
    </g>
</svg>

<svg width="14" height="12" viewBox="0 0 14 12" version="1.1" xmlns="http://www.w3.org/2000/svg"><g id="Design-V1" stroke="none" stroke-width="1" fill="none" fill-rule="evenodd"><g id="Shelf-Packing-List" transform="translate(-107 -313)" fill="#53C999" fill-rule="nonzero"><path d="M120.276 316.033l-1.395-2.225a.688.688 0 00-.582-.323h-8.68a.688.688 0 00-.582.323l-1.394 2.225c-.72 1.15-.082 2.748 1.263 2.93a2.121 2.121 0 001.88-.692 2.125 2.125 0 003.171.001 2.125 2.125 0 003.171 0 2.128 2.128 0 001.88.692c1.35-.18 1.99-1.78 1.268-2.93zm-1.558 3.64c-.215 0-.427-.032-.634-.082v2.144h-8.25v-2.144a2.846 2.846 0 01-.633.082c-.13 0-.26-.009-.387-.026a2.702 2.702 0 01-.352-.077v4.228c0 .38.307.687.687.687h9.625c.38 0 .688-.307.688-.687v-4.228a2.194 2.194 0 01-.353.077c-.13.017-.26.026-.39.026z" id="instore"/></g></g></svg>
